dist/svgs/core-ui-icons/free/cil-chart.svg

<svg xmlns="http://www.w3.org/2000/svg" viewBox="0 0 512 512"><path d="M124 136H36a20.023 20.023 0 00-20 20v320a20.023 20.023 0 0020 20h88a20.023 20.023 0 0020-20V156a20.023 20.023 0 00-20-20zm-12 328H48V168h64zm188-224h-88a20.023 20.023 0 00-20 20v216a20.023 20.023 0 0020 20h88a20.023 20.023 0 0020-20V260a20.023 20.023 0 00-20-20zm-12 224h-64V272h64zM476 16h-88a20.023 20.023 0 00-20 20v440a20.023 20.023 0 0020 20h88a20.023 20.023 0 0020-20V36a20.023 20.023 0 00-20-20zm-12 448h-64V48h64z"/></svg>

<svg xmlns="http://www.w3.org/2000/svg" viewBox="0 0 512 512">
  <path fill="var(--ci-primary-color, currentColor)" d="M124,136H36a20.023,20.023,0,0,0-20,20V476a20.023,20.023,0,0,0,20,20h88a20.023,20.023,0,0,0,20-20V156A20.023,20.023,0,0,0,124,136ZM112,464H48V168h64Z" class="ci-primary"/>
  <path fill="var(--ci-primary-color, currentColor)" d="M300,240H212a20.023,20.023,0,0,0-20,20V476a20.023,20.023,0,0,0,20,20h88a20.023,20.023,0,0,0,20-20V260A20.023,20.023,0,0,0,300,240ZM288,464H224V272h64Z" class="ci-primary"/>
  <path fill="var(--ci-primary-color, currentColor)" d="M476,16H388a20.023,20.023,0,0,0-20,20V476a20.023,20.023,0,0,0,20,20h88a20.023,20.023,0,0,0,20-20V36A20.023,20.023,0,0,0,476,16ZM464,464H400V48h64Z" class="ci-primary"/>
</svg>
